packages/ui/src/icons/delete.svg

<svg xmlns="http://www.w3.org/2000/svg" viewBox="0 0 24 24">
  <path d="M6 19c0 1.1.9 2 2 2h8c1.1 0 2-.9 2-2V7H6v12zM19 4h-3.5l-1-1h-5l-1 1H5v2h14V4z" fill="currentColor" />
</svg>

<svg width="24" height="24" viewBox="0 0 24 24" fill="none" xmlns="http://www.w3.org/2000/svg">
<path d="M16 9V19H8V9H16ZM14.5 3H9.5L8.5 4H5V6H19V4H15.5L14.5 3ZM18 7H6V19C6 20.1 6.9 21 8 21H16C17.1 21 18 20.1 18 19V7Z" fill="black"/>
</svg>
